public/group1.svg

<svg width="41" height="40" viewBox="0 0 41 40" fill="none" xmlns="http://www.w3.org/2000/svg">
<path d="M20.5007 6.66602C21.9257 6.66602 23.3873 6.70268 24.804 6.76268L26.4773 6.84268L28.079 6.93768L29.579 7.03935L30.949 7.14602C32.4357 7.25981 33.8347 7.89426 34.8999 8.93775C35.965 9.98124 36.628 11.3669 36.7723 12.851L36.839 13.5593L36.964 15.076C37.0807 16.6477 37.1673 18.361 37.1673 19.9993C37.1673 21.6377 37.0807 23.351 36.964 24.9227L36.839 26.4394C36.8173 26.6827 36.7957 26.9177 36.7723 27.1477C36.628 28.632 35.9647 30.0179 34.8992 31.0615C33.8338 32.105 32.4344 32.7393 30.9473 32.8527L29.5807 32.9577L28.0807 33.061L26.4773 33.156L24.804 33.236C23.3704 33.2983 21.9356 33.3305 20.5007 33.3327C19.0657 33.3305 17.6309 33.2983 16.1973 33.236L14.524 33.156L12.9223 33.061L11.4223 32.9577L10.0523 32.8527C8.56557 32.7389 7.16657 32.1044 6.10144 31.061C5.03631 30.0175 4.37327 28.6318 4.22898 27.1477L4.16232 26.4394L4.03732 24.9227C3.90988 23.2846 3.84206 21.6424 3.83398 19.9993C3.83398 18.361 3.92065 16.6477 4.03732 15.076L4.16232 13.5593C4.18398 13.316 4.20565 13.081 4.22898 12.851C4.37322 11.3672 5.03601 9.98171 6.1008 8.93825C7.1656 7.8948 8.5642 7.26019 10.0507 7.14602L11.419 7.03935L12.919 6.93768L14.5223 6.84268L16.1957 6.76268C17.6298 6.7004 19.0651 6.66817 20.5007 6.66602ZM20.5007 9.99935C19.1257 9.99935 17.7107 10.036 16.334 10.0927L14.704 10.171L13.139 10.2627L11.669 10.3627L10.3223 10.4677C9.61454 10.5179 8.94739 10.8171 8.43914 11.3122C7.93089 11.8074 7.61436 12.4665 7.54565 13.1727C7.35065 15.1877 7.16732 17.696 7.16732 19.9993C7.16732 22.3027 7.35065 24.811 7.54565 26.826C7.68732 28.2794 8.84065 29.4093 10.3223 29.531L11.669 29.6343L13.139 29.7344L14.704 29.8277L16.334 29.906C17.7107 29.9627 19.1257 29.9993 20.5007 29.9993C21.8757 29.9993 23.2907 29.9627 24.6673 29.906L26.2973 29.8277L27.8623 29.736L29.3323 29.636L30.679 29.531C31.3868 29.4808 32.0539 29.1816 32.5622 28.6865C33.0704 28.1913 33.3869 27.5322 33.4557 26.826C33.6507 24.811 33.834 22.3027 33.834 19.9993C33.834 17.696 33.6507 15.1877 33.4557 13.1727C33.3869 12.4665 33.0704 11.8074 32.5622 11.3122C32.0539 10.8171 31.3868 10.5179 30.679 10.4677L29.3323 10.3643L27.8623 10.2643L26.2973 10.171L24.6673 10.0927C23.2792 10.033 21.89 10.0018 20.5007 9.99935ZM17.1673 15.9577C17.1672 15.7948 17.2069 15.6343 17.2829 15.4903C17.359 15.3462 17.469 15.2229 17.6036 15.1311C17.7381 15.0392 17.8931 14.9817 18.0549 14.9634C18.2168 14.9451 18.3807 14.9666 18.5323 15.026L18.6673 15.0927L25.6673 19.1327C25.8067 19.2131 25.9246 19.326 26.0111 19.4617C26.0975 19.5975 26.1499 19.7521 26.1638 19.9124C26.1777 20.0728 26.1527 20.2341 26.0909 20.3827C26.0292 20.5313 25.9324 20.6628 25.809 20.766L25.6673 20.866L18.6673 24.9077C18.5263 24.9894 18.3674 25.0353 18.2045 25.0416C18.0416 25.0478 17.8796 25.0141 17.7327 24.9435C17.5858 24.8728 17.4585 24.7673 17.3616 24.6362C17.2648 24.505 17.2016 24.3522 17.1773 24.191L17.1673 24.041V15.9577Z" fill="white"/>
</svg>

<svg width="41" height="40" fill="none" xmlns="http://www.w3.org/2000/svg"><path d="M20.5 6.667c1.426 0 2.887.037 4.304.097l1.673.08 1.602.095 1.5.101 1.37.107a6.337 6.337 0 0 1 5.823 5.705l.067.708.125 1.517A67.83 67.83 0 0 1 37.167 20a67.83 67.83 0 0 1-.203 4.924l-.125 1.516c-.022.244-.043.479-.067.709a6.336 6.336 0 0 1-5.825 5.705l-1.366.105-1.5.103-1.604.095-1.673.08c-1.434.062-2.868.094-4.303.097-1.435-.003-2.87-.035-4.304-.097l-1.673-.08-1.602-.095-1.5-.103-1.37-.105a6.337 6.337 0 0 1-5.823-5.705l-.067-.709-.125-1.516A67.772 67.772 0 0 1 3.834 20c0-1.638.087-3.351.203-4.923l.125-1.517c.022-.243.044-.478.067-.708a6.337 6.337 0 0 1 5.822-5.705l1.368-.107 1.5-.101 1.603-.095 1.674-.08c1.434-.063 2.87-.095 4.305-.097zm0 3.333c-1.374 0-2.79.037-4.166.094l-1.63.078-1.565.092-1.47.1-1.347.105a3.003 3.003 0 0 0-2.776 2.705c-.195 2.015-.379 4.523-.379 6.826 0 2.304.184 4.812.379 6.827.141 1.453 1.295 2.583 2.776 2.705l1.347.103 1.47.1 1.565.094 1.63.078c1.377.057 2.792.093 4.167.093s2.79-.036 4.166-.093l1.63-.078 1.565-.092 1.47-.1 1.347-.105a3.003 3.003 0 0 0 2.777-2.705c.195-2.015.378-4.523.378-6.827 0-2.303-.183-4.811-.378-6.826a3.004 3.004 0 0 0-2.777-2.705l-1.347-.104-1.47-.1-1.565-.093-1.63-.078c-1.388-.06-2.777-.091-4.166-.094zm-3.333 5.959a1 1 0 0 1 1.365-.932l.135.067 7 4.04a1 1 0 0 1 .142 1.633l-.142.1-7 4.042a1 1 0 0 1-1.49-.717l-.01-.15v-8.083z" fill="#fff"/></svg>
